source/img/svg/logoTablet.svg

<svg width="25" height="24" viewBox="0 0 25 24" fill="none" xmlns="http://www.w3.org/2000/svg">
<g id="logo">
<g id="logo_2" clip-path="url(#clip0)">
<path id="Vector" d="M11.9817 23.9815C18.599 23.9815 23.9633 18.6172 23.9633 11.9999C23.9633 5.38257 18.599 0.0181885 11.9817 0.0181885C5.36438 0.0181885 0 5.38257 0 11.9999C0 18.6172 5.36438 23.9815 11.9817 23.9815Z" fill="#34ABE0"/>
<path id="Vector_2" d="M24.0001 12.0001C24.0001 13.7549 23.623 15.4215 22.9452 16.9234C21.2815 20.6103 17.8058 23.3045 13.6533 23.8708C13.2112 23.9314 12.7613 23.9676 12.3055 23.9783C12.2102 23.9808 12.1143 23.9818 12.0185 23.9818C7.62533 23.9818 3.78486 21.6177 1.69906 18.0927C1.50444 17.763 1.32444 17.4237 1.16113 17.075C0.95572 16.6353 0.775767 16.1815 0.623657 15.7144L16.3196 0.0184631L16.3827 0.838119L16.4981 2.3287L18.8089 2.50818L18.9883 4.81846L21.2986 4.99795L21.4781 7.3087L23.0993 7.43437C23.6797 8.84184 24.0001 10.3833 24.0001 12.0001Z" fill="#F9EED7"/>
<path id="Vector_3" d="M24 12.0001C24 13.7549 23.6229 15.4215 22.9451 16.9234L11.1801 5.15784L16.3195 0.0184631L16.3826 0.838119L16.498 2.3287L18.8087 2.50818L18.9882 4.81846L21.2985 4.99795L21.478 7.3087L23.0992 7.43437C23.6796 8.84184 24 10.3833 24 12.0001Z" fill="#FF525D"/>
<path id="Vector_4" d="M16.722 17.9518L15.4739 16.7038C14.6034 15.8332 13.7065 16.0969 12.968 16.8353C12.2213 17.5826 11.966 18.4707 12.8365 19.3407L14.0845 20.5892C14.9551 21.4592 15.8432 21.2044 16.5899 20.4571C17.3284 19.7188 17.5925 18.8223 16.722 17.9518ZM15.8255 19.6923C15.5526 19.9652 15.2627 19.9911 14.9726 19.7011L13.7241 18.4531C13.4341 18.1631 13.4605 17.8726 13.7329 17.6002C14.0058 17.3278 14.3046 17.2926 14.5946 17.5826L15.8432 18.8311C16.1332 19.1212 16.0979 19.4199 15.8255 19.6923ZM13.6277 23.7363L10.3839 14.3035C10.3575 14.2248 10.3047 14.1544 10.2519 14.1015C9.97065 13.8203 9.51338 13.9079 9.26738 14.1544C9.10894 14.3123 9.03901 14.5236 9.11771 14.7432L12.3053 23.9783C12.7611 23.9676 13.211 23.9314 13.6531 23.8708C13.6517 23.8238 13.6434 23.7788 13.6277 23.7363ZM9.85623 19.1564L8.60818 17.9078C7.73766 17.0378 6.84127 17.3014 6.1028 18.0399C5.35552 18.7872 5.10075 19.6748 5.97075 20.5453L7.21927 21.7933C8.08927 22.6638 8.97741 22.409 9.72465 21.6618C10.4631 20.9233 10.7267 20.0264 9.85623 19.1564ZM8.95979 20.8969C8.6874 21.1693 8.39691 21.1957 8.1069 20.9057L6.85885 19.6572C6.56836 19.3672 6.59475 19.0771 6.86766 18.8047C7.14005 18.5324 7.43888 18.4971 7.7289 18.7871L8.97741 20.0352C9.26743 20.3252 9.23218 20.6245 8.95979 20.8969Z" fill="#FFD15C"/>
</g>
</g>
<defs>
<clipPath id="clip0">
<rect width="24" height="24" fill="white"/>
</clipPath>
</defs>
</svg>

<svg width="25" height="24" fill="none" xmlns="http://www.w3.org/2000/svg"><g clip-path="url(#clip0)"><path d="M11.982 23.982c6.617 0 11.981-5.365 11.981-11.982C23.963 5.383 18.6.018 11.982.018 5.364.018 0 5.383 0 12c0 6.617 5.364 11.982 11.982 11.982z" fill="#34ABE0"/><path d="M24 12c0 1.755-.377 3.421-1.055 4.923a11.994 11.994 0 01-10.927 7.059A11.976 11.976 0 01.624 15.714L16.32.018l.063.82.115 1.49 2.31.18.18 2.31 2.31.18.18 2.31 1.621.126C23.68 8.842 24 10.384 24 12z" fill="#F9EED7"/><path d="M24 12c0 1.755-.377 3.421-1.055 4.923L11.18 5.158l5.14-5.14.063.82.115 1.49 2.31.18.18 2.31 2.31.18.18 2.31 1.621.126C23.68 8.842 24 10.384 24 12z" fill="#FF525D"/><path d="M16.722 17.952l-1.248-1.248c-.87-.87-1.768-.607-2.506.131-.747.748-1.002 1.636-.132 2.506l1.248 1.248c.871.87 1.76.615 2.506-.132.738-.738 1.003-1.635.132-2.505zm-.897 1.74c-.272.273-.562.3-.852.01l-1.249-1.249c-.29-.29-.264-.58.009-.853.273-.272.572-.307.862-.017l1.248 1.248c.29.29.255.589-.018.861zm-2.197 4.044l-3.244-9.433a.543.543 0 00-.132-.202c-.281-.28-.739-.193-.985.053-.158.158-.228.37-.15.59l3.188 9.234c.456-.01.906-.047 1.348-.107a.422.422 0 00-.025-.135zm-3.772-4.58l-1.248-1.248c-.87-.87-1.767-.607-2.505.132-.747.747-1.002 1.635-.132 2.505l1.248 1.248c.87.87 1.758.616 2.506-.131.738-.739 1.002-1.636.131-2.506zm-.896 1.74c-.273.273-.563.3-.853.01l-1.248-1.249c-.29-.29-.264-.58.009-.852.272-.273.57-.308.86-.018l1.25 1.248c.29.29.254.59-.018.862z" fill="#FFD15C"/></g><defs><clipPath id="clip0"><path fill="#fff" d="M0 0h24v24H0z"/></clipPath></defs></svg>
